packages/foundations/assets/icons/functional/images/environment/leaf_14.svg

<svg width="14" height="14" viewBox="0 0 14 14" fill="none" xmlns="http://www.w3.org/2000/svg">
<g clip-path="url(#clip0_185_821)">
<path fill-rule="evenodd" clip-rule="evenodd" d="M11.9638 3.39431C12.3698 3.46452 12.6771 3.86789 12.5699 4.26569C11.6821 7.55939 10.2573 9.5589 8.47927 10.3453C7.17445 10.9225 5.74929 10.7608 4.8396 10.115C3.84719 10.457 2.85361 10.4597 1.85888 10.1232C1.00485 9.81178 1.48082 8.48847 2.32912 8.80453C3.64013 9.29298 5.58515 8.68886 7.56354 6.54996C8.34578 5.8372 9.16484 6.81988 8.64063 7.44432C7.95458 8.2017 7.24688 8.81695 6.51752 9.29007C6.9485 9.34385 7.44143 9.2847 7.91296 9.06499C9.25111 8.44148 10.2743 6.98652 10.9826 4.7001C8.44927 4.63088 6.69968 5.35886 5.73382 6.88405C5.11387 7.92619 3.97896 7.14532 4.4555 6.3112C5.22612 5.0226 6.38069 4.17351 7.82896 3.69589C9.02255 3.30226 10.3679 3.2021 11.9638 3.39431Z" fill="#1A1C1F"/>
</g>
<defs>
<clipPath id="clip0_185_821">
<rect width="14" height="14" fill="white"/>
</clipPath>
</defs>
</svg>

<svg xmlns="http://www.w3.org/2000/svg" width="14" height="14" fill="none"><g clip-path="url(#a)"><path fill="#1A1C1F" fill-rule="evenodd" d="M11.964 3.394c.406.07.713.474.606.872-.888 3.293-2.313 5.293-4.09 6.08-1.306.576-2.73.415-3.64-.231a4.5 4.5 0 0 1-2.981.008c-.854-.311-.378-1.635.47-1.318 1.311.488 3.256-.116 5.235-2.255.782-.713 1.6.27 1.077.894Q7.61 8.581 6.518 9.29c.43.054.923-.005 1.395-.225Q9.92 8.13 10.983 4.7q-3.8-.104-5.25 2.184c-.62 1.042-1.754.261-1.277-.573.77-1.288 1.925-2.137 3.373-2.615 1.194-.394 2.539-.494 4.135-.302" clip-rule="evenodd"/></g><defs><clipPath id="a"><path fill="#fff" d="M0 0h14v14H0z"/></clipPath></defs></svg>
